X:793
T:The snow on the hills
R:Jig
D:Boiled in Lead:Orb
S:Boiled in Lead:Orb
Z:Transcription, chords:Mike Long
M:6/8
L:1/8
K:D
"D"DFA d2e|fef dAF|DFA dAB|"C"~=c2c "G"BAG|\
"D"DFA d2e|fef d3|
"D"agf "A/G"gec|[1 "A"edc "D"d3:|[2 "A"edc "D"d2A\
|:"D"aAA "G"gAA|"D"faf d2A|"D"aAA "G"gAA|
"D"fed "A"e2A|\
"D"aAA "G"gAA|"D"faf d3|"D"agf "A/G"gec|[1 "A"edc "D"d2A:|[2 "A"edc "D"d3|]
